svg/UnitedNationsOCHA-Humanitarian/socioeconomic_and_development_trade_and_market_icon_box.svg

<svg xmlns="http://www.w3.org/2000/svg" viewBox="0 0 32 32" enable-background="new 0 0 32 32"><path fill="#407cca" d="m25.6 0h-19.2c-3.52 0-6.4 2.88-6.4 6.4v19.2c0 3.521 2.88 6.4 6.4 6.4h19.2c3.521 0 6.4-2.88 6.4-6.4v-19.2c0-3.52-2.88-6.4-6.4-6.4m-14.453 15.04l3.124 3.02 3.112-5.918 2.981 3.45 2.173-5.166-1.979-.834 4.82-3.654.755 6-1.997-.841-3.258 7.739-3.144-3.639-3.01 5.719-2.997-2.9-2.559 5.812-1.587-.698 3.564-8.092m16.853 12.956h-24v-23.999h.88v23.12h23.12v.88"/></svg>

<?xml version="1.0" encoding="utf-8"?>
<!-- Generator: Adobe Illustrator 16.0.3, SVG Export Plug-In . SVG Version: 6.00 Build 0)  -->
<!DOCTYPE svg PUBLIC "-//W3C//DTD SVG 1.1//EN" "http://www.w3.org/Graphics/SVG/1.1/DTD/svg11.dtd">
<svg version="1.1" id="Layer_1" xmlns="http://www.w3.org/2000/svg" xmlns:xlink="http://www.w3.org/1999/xlink" x="0px" y="0px"
	 width="32px" height="32px" viewBox="0 0 32 32" enable-background="new 0 0 32 32" xml:space="preserve">
<path fill="#407CCA" d="M25.6,0H6.4C2.88,0,0,2.88,0,6.4v19.202c0,3.521,2.88,6.4,6.4,6.4h19.2c3.521,0,6.4-2.88,6.4-6.4V6.4
	C32,2.88,29.12,0,25.6,0z M11.147,15.044l3.124,3.021l3.112-5.918l2.981,3.45l2.173-5.166l-1.979-0.834l4.82-3.654l0.755,6.001
	l-1.997-0.841l-3.258,7.739l-3.144-3.639l-3.008,5.719l-2.997-2.9L9.17,23.834l-1.587-0.698L11.147,15.044z M28,28H4V4.001h0.88
	V27.12H28V28z"/>
</svg>
